static/assets/template/assets/img/icons/essential/detailed/Chat.svg

<svg height="149" viewBox="0 0 131 149" width="131" xmlns="http://www.w3.org/2000/svg"><g fill="none" fill-rule="evenodd" transform="translate(2 1)"><path d="m126.6 80.4v1.1c-.1 14.7-.6 34.8-.6 64.5l-29.9-18.2-2-1.2c-4.5-2.8-10-3.5-15.2-2.2-5 1.3-10.3 2-15.7 2-4.6 0-9.2-.5-13.5-1.4-28.1-6.1-49.3-31.2-49.4-61.1-.1-34.8 28-63.1 62.8-63.1 25 0 48.1 15.3 57.9 38.3 4.8 11.1 5.7 21.1 5.6 41.3z" fill-rule="nonzero"/><path d="m126.6 80.4v1.1 1.9c0 13.9-.6 33.1-.6 62.6l-29.4-17.9c-.2-.1-.3-.2-.5-.3l-2-1.2c-4.5-2.8-10-3.5-15.2-2.2-5 1.3-10.3 2-15.7 2-4.6 0-9.2-.5-13.5-1.4-15.6-5.2-28.4-16.8-35-31.8-3.2-7.1-4.9-15-5-23.2-.1-32.2 25.9-58.3 58.1-58.3 23.1 0 44.5 14.2 53.5 35.5 4.2 9.3 5.2 17.7 5.3 33.2z" fill="#d0e5fe" fill-rule="nonzero"/><path d="m126.6 80.4v1.1 1.9c-3.9 14.6-6.4 29.5-6.4 44.2 0 0-23.7-14.5-35.7-21.7-14.3-8.7-22 4.3-49.7-1.8-7.3-2.4-14.1-6.1-20.1-10.9-3.2-7.1-4.9-15-5-23.2-.1-32.2 25.9-58.3 58.1-58.3 23.1 0 44.5 14.2 53.5 35.5 4.2 9.3 5.2 17.7 5.3 33.2z" fill-rule="nonzero"/><path d="m126.1 130.9v15.1l-29.9-18.2-2-1.2c-4.5-2.8-10-3.5-15.2-2.2-5 1.3-10.3 2-15.7 2-4.6 0-9.2-.5-13.5-1.4-28.1-6.1-49.3-31.2-49.4-61.1 0-12.4 3.5-23.9 9.6-33.7" stroke-linecap="round" stroke-linejoin="round" stroke-width="3"/><path d="m41.8 4.5c6.7-2.4 13.9-3.7 21.4-3.7 25 0 48.1 15.3 57.9 38.3 4.7 11.1 5.6 21.1 5.6 41.3v1.1c0 8.9-.3 19.7-.4 33.3" stroke-linecap="round" stroke-linejoin="round" stroke-width="3"/><path d="m29 10.9c.5-.3 1-.7 1.5-1" stroke-linecap="round" stroke-linejoin="round" stroke-width="3"/><circle cx="32.8" cy="64.8" fill-rule="nonzero" r="9.3"/><circle cx="63.3" cy="64.8" fill-rule="nonzero" r="9.3"/><circle cx="93.8" cy="64.8" fill-rule="nonzero" r="9.3"/><g stroke-linecap="round" stroke-linejoin="round" stroke-width="3"><path d="m32.8 74.1c-5.1 0-9.3-4.2-9.3-9.3 0-1.2.2-2.3.6-3.3"/><path d="m29.7 56c1-.3 2-.5 3.1-.5 5.1 0 9.3 4.2 9.3 9.3 0 2.5-1 4.7-2.5 6.4"/><path d="m72.6 64.3v.5c0 5.1-4.2 9.3-9.3 9.3s-9.3-4.2-9.3-9.3 4.2-9.3 9.3-9.3c.9 0 1.7.1 2.5.3"/><path d="m87.1 58.4c1.7-1.8 4.1-2.9 6.7-2.9 5.1 0 9.3 4.2 9.3 9.3s-4.2 9.3-9.3 9.3-9.3-4.2-9.3-9.3c0-2.5 1-4.7 2.6-6.4"/></g></g></svg>

<?xml version="1.0" encoding="UTF-8"?>
<svg width="131px" height="149px" viewBox="0 0 131 149" version="1.1" xmlns="http://www.w3.org/2000/svg" xmlns:xlink="http://www.w3.org/1999/xlink">
    <!-- Generator: Sketch 51.2 (57519) - http://www.bohemiancoding.com/sketch -->
    <title>Chat</title>
    <desc>Created with Sketch.</desc>
    <defs></defs>
    <g id="Page-1" stroke="none" stroke-width="1" fill="none" fill-rule="evenodd">
        <g id="Chat" transform="translate(2.000000, 1.000000)">
            <path d="M126.6,80.4 C126.6,80.7 126.6,81.1 126.6,81.5 C126.5,96.2 126,116.3 126,146 C126,146 126,146 126,146 L96.1,127.8 L94.1,126.6 C89.6,123.8 84.1,123.1 78.9,124.4 C73.9,125.7 68.6,126.4 63.2,126.4 C58.6,126.4 54,125.9 49.7,125 C21.6,118.9 0.4,93.8 0.3,63.9 C0.2,29.1 28.3,0.8 63.1,0.8 C88.1,0.8 111.2,16.1 121,39.1 C125.8,50.2 126.7,60.2 126.6,80.4 Z" id="Shape" class="fill-neutral" fill-rule="nonzero"></path>
            <path d="M126.6,80.4 C126.6,80.7 126.6,81.1 126.6,81.5 L126.6,83.4 C126.6,97.3 126,116.5 126,146 L96.6,128.1 C96.4,128 96.3,127.9 96.1,127.8 L94.1,126.6 C89.6,123.8 84.1,123.1 78.9,124.4 C73.9,125.7 68.6,126.4 63.2,126.4 C58.6,126.4 54,125.9 49.7,125 C34.1,119.8 21.3,108.2 14.7,93.2 C11.5,86.1 9.8,78.2 9.7,70 C9.6,37.8 35.6,11.7 67.8,11.7 C90.9,11.7 112.3,25.9 121.3,47.2 C125.5,56.5 126.5,64.9 126.6,80.4 Z" id="Shape" fill="#D0E5FE" fill-rule="nonzero"></path>
            <path d="M126.6,80.4 C126.6,80.7 126.6,81.1 126.6,81.5 L126.6,83.4 C122.7,98 120.2,112.9 120.2,127.6 C120.2,127.6 96.5,113.1 84.5,105.9 C70.2,97.2 62.5,110.2 34.8,104.1 C27.5,101.7 20.7,98 14.7,93.2 C11.5,86.1 9.8,78.2 9.7,70 C9.6,37.8 35.6,11.7 67.8,11.7 C90.9,11.7 112.3,25.9 121.3,47.2 C125.5,56.5 126.5,64.9 126.6,80.4 Z" id="Shape" class="fill-primary-100" fill-rule="nonzero"></path>
            <path d="M126.1,130.9 C126.1,135.6 126.1,140.6 126.1,146 C126.1,146 126.1,146 126.1,146 L96.2,127.8 L94.2,126.6 C89.7,123.8 84.2,123.1 79,124.4 C74,125.7 68.7,126.4 63.3,126.4 C58.7,126.4 54.1,125.9 49.8,125 C21.7,118.9 0.5,93.8 0.4,63.9 C0.4,51.5 3.9,40 10,30.2" id="Shape" class="stroke-primary" stroke-width="3" stroke-linecap="round" stroke-linejoin="round"></path>
            <path d="M41.8,4.5 C48.5,2.1 55.7,0.8 63.2,0.8 C88.2,0.8 111.3,16.1 121.1,39.1 C125.8,50.2 126.7,60.2 126.7,80.4 C126.7,80.7 126.7,81.1 126.7,81.5 C126.7,90.4 126.4,101.2 126.3,114.8" id="Shape" class="stroke-primary" stroke-width="3" stroke-linecap="round" stroke-linejoin="round"></path>
            <path d="M29,10.9 C29.5,10.6 30,10.2 30.5,9.9" id="Shape" class="stroke-primary" stroke-width="3" stroke-linecap="round" stroke-linejoin="round"></path>
            <circle id="Oval" class="fill-neutral" fill-rule="nonzero" cx="32.8" cy="64.8" r="9.3"></circle>
            <circle id="Oval" class="fill-neutral" fill-rule="nonzero" cx="63.3" cy="64.8" r="9.3"></circle>
            <circle id="Oval" class="fill-neutral" fill-rule="nonzero" cx="93.8" cy="64.8" r="9.3"></circle>
            <path d="M32.8,74.1 C27.7,74.1 23.5,69.9 23.5,64.8 C23.5,63.6 23.7,62.5 24.1,61.5" id="Shape" class="stroke-primary" stroke-width="3" stroke-linecap="round" stroke-linejoin="round"></path>
            <path d="M29.7,56 C30.7,55.7 31.7,55.5 32.8,55.5 C37.9,55.5 42.1,59.7 42.1,64.8 C42.1,67.3 41.1,69.5 39.6,71.2" id="Shape" class="stroke-primary" stroke-width="3" stroke-linecap="round" stroke-linejoin="round"></path>
            <path d="M72.6,64.3 C72.6,64.5 72.6,64.6 72.6,64.8 C72.6,69.9 68.4,74.1 63.3,74.1 C58.2,74.1 54,69.9 54,64.8 C54,59.7 58.2,55.5 63.3,55.5 C64.2,55.5 65,55.6 65.8,55.8" id="Shape" class="stroke-primary" stroke-width="3" stroke-linecap="round" stroke-linejoin="round"></path>
            <path d="M87.1,58.4 C88.8,56.6 91.2,55.5 93.8,55.5 C98.9,55.5 103.1,59.7 103.1,64.8 C103.1,69.9 98.9,74.1 93.8,74.1 C88.7,74.1 84.5,69.9 84.5,64.8 C84.5,62.3 85.5,60.1 87.1,58.4" id="Shape" class="stroke-primary" stroke-width="3" stroke-linecap="round" stroke-linejoin="round"></path>
        </g>
    </g>
</svg>
